src/assets/txs/offers-gray.svg

<?xml version="1.0" encoding="UTF-8"?>
<svg width="18px" height="12px" viewBox="0 0 18 12" version="1.1" xmlns="http://www.w3.org/2000/svg" xmlns:xlink="http://www.w3.org/1999/xlink">
    <!-- Generator: Sketch 64 (93537) - https://sketch.com -->
    <title>Shape@1.5x</title>
    <desc>Created with Sketch.</desc>
    <g id="wireframes" stroke="none" stroke-width="1" fill="none" fill-rule="evenodd">
        <g id="01---live-transactions" transform="translate(-700.000000, -256.000000)" fill="#B0BAC2" fill-rule="nonzero">
            <g id="Group-9" transform="translate(320.000000, 234.000000)">
                <path d="M386.3882,29.4799999 L380.64,29.4799999 L380.64,31.1199999 L386.3882,31.1199999 L386.3882,33.5799999 L389.66,30.2999999 L386.3882,27.0199999 L386.3882,29.4799999 Z M391.2918,28.6599999 L391.2918,26.1999999 L397.04,26.1999999 L397.04,24.5599999 L391.2918,24.5599999 L391.2918,22.1 L388.02,25.3799999 L391.2918,28.6599999 Z" id="Shape"></path>
            </g>
        </g>
    </g>
</svg>

<?xml version="1.0" encoding="UTF-8" standalone="no"?>
<svg
   xmlns:dc="http://purl.org/dc/elements/1.1/"
   xmlns:cc="http://creativecommons.org/ns#"
   xmlns:rdf="http://www.w3.org/1999/02/22-rdf-syntax-ns#"
   xmlns:svg="http://www.w3.org/2000/svg"
   xmlns="http://www.w3.org/2000/svg"
   xmlns:sodipodi="http://sodipodi.sourceforge.net/DTD/sodipodi-0.dtd"
   xmlns:inkscape="http://www.inkscape.org/namespaces/inkscape"
   width="18px"
   height="12px"
   viewBox="0 0 18 12"
   version="1.1"
   id="svg10"
   sodipodi:docname="offers-gray.svg"
   inkscape:version="0.92.4 (unknown)">
  <metadata
     id="metadata16">
    <rdf:RDF>
      <cc:Work
         rdf:about="">
        <dc:format>image/svg+xml</dc:format>
        <dc:type
           rdf:resource="http://purl.org/dc/dcmitype/StillImage" />
      </cc:Work>
    </rdf:RDF>
  </metadata>
  <defs
     id="defs14" />
  <sodipodi:namedview
     pagecolor="#ffffff"
     bordercolor="#666666"
     borderopacity="1"
     objecttolerance="10"
     gridtolerance="10"
     guidetolerance="10"
     inkscape:pageopacity="0"
     inkscape:pageshadow="2"
     inkscape:window-width="1277"
     inkscape:window-height="930"
     id="namedview12"
     showgrid="false"
     inkscape:zoom="18.333333"
     inkscape:cx="9.1090909"
     inkscape:cy="6"
     inkscape:window-x="2379"
     inkscape:window-y="107"
     inkscape:window-maximized="0"
     inkscape:current-layer="svg10" />
  <!-- Generator: Sketch 64 (93537) - https://sketch.com -->
  <title
     id="title2">Shape@1.5x</title>
  <desc
     id="desc4">Created with Sketch.</desc>
  <g
     id="wireframes"
     style="fill:none;fill-rule:evenodd;stroke:none;stroke-width:1"
     transform="translate(0,0.43636363)">
    <g
       id="01---live-transactions"
       transform="translate(-700,-256)"
       style="fill:#b0bac2;fill-rule:nonzero">
      <g
         id="Group-9"
         transform="translate(320,234)">
        <path
           d="M 386.3882,29.48 H 380.64 v 1.64 h 5.7482 v 2.46 l 3.2718,-3.28 -3.2718,-3.28 z m 4.9036,-0.82 V 26.2 h 5.7482 v -1.64 h -5.7482 V 22.1 l -3.2718,3.28 z"
           id="Shape"
           inkscape:connector-curvature="0" />
      </g>
    </g>
  </g>
</svg>
